static/img/menus/spec-credential-face.svg

<svg width="100" height="100" viewBox="0 0 100 100" fill="none" xmlns="http://www.w3.org/2000/svg">
<path d="M12.5 29.1667V20.8333C12.5 18.6232 13.378 16.5036 14.9408 14.9408C16.5036 13.378 18.6232 12.5 20.8333 12.5H29.1667" stroke="currentColor" stroke-width="8.33333" stroke-linecap="round" stroke-linejoin="round"/>
<path d="M70.8333 12.5H79.1667C81.3768 12.5 83.4964 13.378 85.0592 14.9408C86.622 16.5036 87.5 18.6232 87.5 20.8333V29.1667" stroke="currentColor" stroke-width="8.33333" stroke-linecap="round" stroke-linejoin="round"/>
<path d="M87.5 70.8333V79.1667C87.5 81.3768 86.622 83.4964 85.0592 85.0592C83.4964 86.622 81.3768 87.5 79.1667 87.5H70.8333" stroke="currentColor" stroke-width="8.33333" stroke-linecap="round" stroke-linejoin="round"/>
<path d="M29.1667 87.5H20.8333C18.6232 87.5 16.5036 86.622 14.9408 85.0592C13.378 83.4964 12.5 81.3768 12.5 79.1667V70.8333" stroke="currentColor" stroke-width="8.33333" stroke-linecap="round" stroke-linejoin="round"/>
<path d="M33.3333 58.3333C33.3333 58.3333 39.5833 66.6667 50 66.6667C60.4167 66.6667 66.6667 58.3333 66.6667 58.3333" stroke="currentColor" stroke-width="8.33333" stroke-linecap="round" stroke-linejoin="round"/>
<path d="M37.5 37.5H37.5417" stroke="currentColor" stroke-width="8.33333" stroke-linecap="round" stroke-linejoin="round"/>
<path d="M62.5 37.5H62.5417" stroke="currentColor" stroke-width="8.33333" stroke-linecap="round" stroke-linejoin="round"/>
</svg>

<svg xmlns="http://www.w3.org/2000/svg" width="100" height="100" fill="none" viewBox="0 0 100 100"><path stroke="currentColor" stroke-linecap="round" stroke-linejoin="round" stroke-width="8.333" d="M12.5 29.167v-8.334a8.333 8.333 0 0 1 8.333-8.333h8.334M70.833 12.5h8.334a8.333 8.333 0 0 1 8.333 8.333v8.334M87.5 70.833v8.334a8.333 8.333 0 0 1-8.333 8.333h-8.334M29.167 87.5h-8.334a8.333 8.333 0 0 1-8.333-8.333v-8.334M33.333 58.333s6.25 8.334 16.667 8.334 16.667-8.334 16.667-8.334M37.5 37.5h.042M62.5 37.5h.042"/></svg>
